svgs/common/icon/arrow-pick.svg

<svg height="16" viewBox="0 0 16 16" width="16" xmlns="http://www.w3.org/2000/svg"><path d="m1.7 3.04350288v4.45649712c0 .52467051-.42532949.95-.95.95s-.95-.42532949-.95-.95v-6.75c0-.52467051.42532949-.95.95-.95h6.75c.52467051 0 .95.42532949.95.95s-.42532949.95-.95.95h-4.45649712l10.88650072 10.8865007c.3709981.3709981.3709981.9725048 0 1.3435029s-.9725048.3709981-1.3435029 0z"/></svg>

<?xml version="1.0" encoding="UTF-8"?>
<svg width="16px" height="16px" viewBox="0 0 16 16" version="1.1" xmlns="http://www.w3.org/2000/svg" xmlns:xlink="http://www.w3.org/1999/xlink">
    <g id="Page-1" stroke="none" stroke-width="1">
        <g id="Group" fill-rule="nonzero">
            <path d="M1.7,3.04350288 L1.7,7.5 C1.7,8.02467051 1.27467051,8.45 0.75,8.45 C0.225329488,8.45 -0.2,8.02467051 -0.2,7.5 L-0.2,0.75 C-0.2,0.225329488 0.225329488,-0.2 0.75,-0.2 L7.5,-0.2 C8.02467051,-0.2 8.45,0.225329488 8.45,0.75 C8.45,1.27467051 8.02467051,1.7 7.5,1.7 L3.04350288,1.7 L13.9300036,12.5865007 C14.3010017,12.9574988 14.3010017,13.5590055 13.9300036,13.9300036 C13.5590055,14.3010017 12.9574988,14.3010017 12.5865007,13.9300036 L1.7,3.04350288 Z" id="Combined-Shape"></path>
        </g>
    </g>
</svg>
